X:1
T:Belmont, CM
T:Belmont, CM
T:William Gardiner, 1812
T:Public Domain Courtesy of the Cyber Hymnal™
C:William Gardiner, 1812
Z:Public Domain
Z:Courtesy of the Cyber Hymnal™
%%score ( 1 2 ) ( 3 4 )
L:1/8
M:3/4
K:G
V:1 treble 
V:2 treble 
V:3 bass 
V:4 bass 
V:1
 D2 | [GB]4 [FA]2 | G4 [DF]2 | [DF]2 [CE]2 [CG]2 | D4 [Dd]2 | (d2 c2) [DB]2 | (B2 A2) [EG]2 | %7
 [D-G]6 | [DF]4 D2 | [DB]4 [CA]2 | [B,G]4 [DF]2 | [DF]2 [CE]2 [CG]2 | [B,D]4 [Dd]2 | %13
 (d2 c2) [CA]2 | (G2 B2) [CA]2 | [B,G]4 |] %16
V:2
 D2 | x6 | G4 x2 | x6 | D4 x2 | D4 x2 | E4 x2 | x6 | x4 D2 | x6 | x6 | x6 | x6 | E4 x2 | D4 x2 | %15
 x4 |] %16
V:3
 [G,B,]2 | [G,D]4 [D,C]2 | [E,B,]4 [B,,G,]2 | [C,G,]4 [E,G,]2 | [G,B,]4 [D,F,]2 | %5
 [E,G,]2 [F,A,]2 G,2 | (G,2 A,2) [^C,^A,]2 | [D,-B,]6 | [D,A,]4 [D,F,]2 | G,4 [D,F,]2 | %10
 [E,G,]4 [B,,G,]2 | [C,G,]4 [E,G,]2 | G,4 [B,,G,]2 | [C,G,]4 [C,A,]2 | (B,2 G,2) [D,F,]2 | %15
 [G,,G,]4 |] %16
V:4
 x2 | x6 | x6 | x6 | x6 | x4 G,2 | ^C,4 x2 | x6 | x6 | G,4 x2 | x6 | x6 | G,4 x2 | x6 | D,4 x2 | %15
 x4 |] %16

